packages/brickdoc-design-icons/assets/basic/divider.svg

<svg width="1em" height="1em" viewBox="0 0 24 24" fill="none" xmlns="http://www.w3.org/2000/svg">
<path fill-rule="evenodd" clip-rule="evenodd" d="M1 12C1 11.4477 1.44772 11 2 11H22C22.5523 11 23 11.4477 23 12C23 12.5523 22.5523 13 22 13H2C1.44772 13 1 12.5523 1 12Z" fill="#3E3E3E"/>
<path fill-rule="evenodd" clip-rule="evenodd" d="M2 5C2 4.44772 2.44772 4 3 4H21C21.5523 4 22 4.44772 22 5C22 5.55228 21.5523 6 21 6H3C2.44772 6 2 5.55228 2 5Z" fill="#2C5BFF"/>
<path fill-rule="evenodd" clip-rule="evenodd" d="M2 19C2 18.4477 2.44772 18 3 18H21C21.5523 18 22 18.4477 22 19C22 19.5523 21.5523 20 21 20H3C2.44772 20 2 19.5523 2 19Z" fill="#2C5BFF"/>
</svg>

<svg  viewBox="0 0 24 24" width="1em" height="1em" fill="none" xmlns="http://www.w3.org/2000/svg"><path fill-rule="evenodd" clip-rule="evenodd" d="M1 12a1 1 0 0 1 1-1h20a1 1 0 1 1 0 2H2a1 1 0 0 1-1-1Z" fill="#34313c"/><path fill-rule="evenodd" clip-rule="evenodd" d="M2 5a1 1 0 0 1 1-1h18a1 1 0 1 1 0 2H3a1 1 0 0 1-1-1ZM2 19a1 1 0 0 1 1-1h18a1 1 0 1 1 0 2H3a1 1 0 0 1-1-1Z" fill="#2C5BFF"/></svg>
